X:191
%%annotationfont Times-Roman 12
T:Garster's Dream
C:Joe Buchanan's Scottish Tome - Page 275.2
I:275 2
Z:Carl Allison
R:Jig
L:1/8
M:6/8
K:G
D | G2 B BGB | cdc BAG | FGA ABA | A<dB AFD |
G B BGB | cdc BAG | F2 E DEF | G3 G2 :| 
e | gag gdB | "^Echo"ABA AGE | gag gdB | "^Echo"ded def |
gag gdB | "^Echo"ABA AGE | G2 E DEF | G3 G2 :|

